X: 24037
T: London Lasses, The
R: reel
M: 4/4
K: Gmajor
|:G2BG dGBG|eaag efg2|G2BG dGBG|egdB AGEF|
G2BG dGBG|eaag efga|bgag egfa|gedB AGEF:|
|:gfgd e2dB|dG (3GBG Bdd2|gabg (3ege d2|egdB AGEF|
gfgd e2dB|dG (3GBG dega|bgag egfa|gedB AGEF:|

